icons/image-03-filled-alt-filled.svg

<svg viewBox="0 0 24 24"><path fill="currentColor" fill-rule="evenodd" d="M6 1.4a4.6 4.6 0 0 0-4.6 4.6v12a4.6 4.6 0 0 0 4.6 4.6h12a4.6 4.6 0 0 0 4.6-4.6v-12a4.6 4.6 0 0 0-4.6-4.6zm1 7.6a2 2 0 1 0 0-4 2 2 0 0 0 0 4Zm-2.4 11h14.8q.5 0 .6-.7v-.3a1 1 0 0 0-.2-.5l-4.3-5.3a1 1 0 0 0-.9 0l-3.6 4.3a1 1 0 0 1-.8.1l-2.2-1.9a1 1 0 0 0-.8 0l-3 3.1c-.4.5-.1 1.2.4 1.2Z" clip-rule="evenodd"/></svg>

<svg viewBox="0 0 24 24"><path fill="currentColor" fill-rule="evenodd" d="M6 1.4A4.6 4.6 0 0 0 1.4 6v12A4.6 4.6 0 0 0 6 22.6h12a4.6 4.6 0 0 0 4.6-4.6V6A4.6 4.6 0 0 0 18 1.4zM7 9a2 2 0 1 0 0-4 2 2 0 0 0 0 4M4.6 20h14.8q.5 0 .6-.7V19l-.2-.5-4.3-5.3a1 1 0 0 0-.9 0L11 17.5l-.8.1L8 15.7h-.8l-3 3.1c-.4.5-.1 1.2.4 1.2" clip-rule="evenodd"/></svg>
